X: 7
T: The Boys Of The Town
R: jig
M: 6/8
L: 1/8
K: Gmaj
G2 G GBd | edB dFA | ~G3 GB/c/d | edB ABA | GAF GBd | edB g2 d | edB AFA | BGG G2- :|def g2 g | afd edB | def gdg | afd e2 B | [1 def gfg | afd e2 g | ee/d/B A2 A | BGG G2- :|[2 dd/e/f gbb | faa e2 g | edB AFD | BGF G2 |]


Tune 1035	Setting 14258

